!!!COM: Bach, Johann Sebastian
!!!OTA: Das wohltemperirte Clavier
!!!OPR: Das wohltemperierte Klavier
!!!OTL: Fuga 4, Vol. 1
!!!XEN: The Well-Tempered Clavier, Volume 1, Fugue 4.
!!!ONB: C-sharp minor, 5-part
!!!SCT: BWV 849b
!!!YEC: Copyright 1994, David Huron
!!!YEM: Rights to all derivative electronic formats reserved.
**kern	**kern	**kern	**kern	**kern
*staff2	*staff2	*staff1	*staff1	*staff1
*clefF4	*clefF4	*clefG2	*clefG2	*clefG2
*k[f#c#g#d#]	*k[f#c#g#d#]	*k[f#c#g#d#]	*k[f#c#g#d#]	*k[f#c#g#d#]
*M2/2	*M2/2	*M2/2	*M2/2	*M2/2
*c#:	*c#:	*c#:	*c#:	*c#:
*MM107	*MM107	*MM107	*MM107	*MM107
=1	=1	=1	=1	=1
1C#	1r	1r	1r	1r
=2	=2	=2	=2	=2
2BB#	1r	1r	1r	1r
2E	.	.	.	.
=3	=3	=3	=3	=3
1D#	1r	1r	1r	1r
=4	=4	=4	=4	=4
4C#	1G#	1r	1r	1r
4D#	.	.	.	.
[2E	.	.	.	.
=5	=5	=5	=5	=5
4E]	2F##	1r	1r	1r
8D#	.	.	.	.
8C#	.	.	.	.
4D#	2B	.	.	.
4G#	.	.	.	.
=6	=6	=6	=6	=6
4C#	1A#	1r	1r	1r
8D#	.	.	.	.
8E	.	.	.	.
[2F#	.	.	.	.
=7	=7	=7	=7	=7
4F#]	2G#	2r	1r	1r
4E	.	.	.	.
4D#	[2An	2c#	.	.
4C#	.	.	.	.
=8	=8	=8	=8	=8
2D#	4A]	2B#	1r	1r
.	8G#	.	.	.
.	8F#	.	.	.
[2C#	4G#	2e	.	.
.	4c#	.	.	.
=9	=9	=9	=9	=9
4C#]	4F#	1d#	1r	1r
4BB	8G#	.	.	.
.	8A	.	.	.
4AA	[2B	.	.	.
4GG#	.	.	.	.
=10	=10	=10	=10	=10
2AA	4B]	2c#	1r	1r
.	4A	.	.	.
2AA#	4G#	[2f#	.	.
.	4F#	.	.	.
=11	=11	=11	=11	=11
2BB#	2G#	4f#]	1r	1r
.	.	4e	.	.
2C#	4F#	4d#	.	.
.	4E	4c#	.	.
=12	=12	=12	=12	=12
4GG#	2.D#	2c#	2r	1r
4AA	.	.	.	.
[2BB	.	2B	2g#	.
.	4Dn	.	.	.
=13	=13	=13	=13	=13
4BB]	[1C#	2c#	2e#	1r
4AA	.	.	.	.
4GG#	.	[2f#	2a	.
4FF#	.	.	.	.
=14	=14	=14	=14	=14
2C#	1C#]	4f#]	2g#	2r
.	.	4e	.	.
[2AA	.	4d#	[2f#	2cc#
.	.	4c#	.	.
=15	=15	=15	=15	=15
4AA]	1r	2d#	2f#]	2b#
4GG#	.	.	.	.
4FF#	.	2g#	[2cc#	2ee
4EE	.	.	.	.
=16	=16	=16	=16	=16
2FF#	1r	4r	2cc#]	1dd#
.	.	4a	.	.
2GG#	.	4g#	[2b	.
.	.	4f#	.	.
=17	=17	=17	=17	=17
4AA	1r	4e#	2b]	2.cc#
4GG#	.	4c#	.	.
4AA	.	2f#	2a	.
4BB	.	.	.	4dd#
=18	=18	=18	=18	=18
4C#	1r	[1e	2g#	4ee
4BB	.	.	.	4dd#
4C#	.	.	[2a	2cc#
4D#	.	.	.	.
=19	=19	=19	=19	=19
2E	2r	2e]	4a]	2b
.	.	.	4g#	.
[2C#	2G#	2g#	4f#	2cc#
.	.	.	4e	.
=20	=20	=20	=20	=20
4C#]	2F##	2a#	2d#	2dd#
4BB	.	.	.	.
4AA#	2B	2r	2g#	2r
4GG#	.	.	.	.
=21	=21	=21	=21	=21
2C#	1A#	1r	2g#	4r
.	.	.	.	4ee
2D#	.	.	2f##	4dd#
.	.	.	.	4cc#
=22	=22	=22	=22	=22
2GG#	4G#	1r	2g#	4b
.	4An	.	.	4dd#
2r	4G#	.	2B	[2gg#
.	4F#	.	.	.
=23	=23	=23	=23	=23
1r	2E#	1r	2.c#	4gg#]
.	.	.	.	4ff#
.	2A	.	.	4gg#
.	.	.	4c#	4aa
=24	=24	=24	=24	=24
1r	1G#	1r	4d#	[1bb
.	.	.	4c#	.
.	.	.	4d#	.
.	.	.	4e#	.
=25	=25	=25	=25	=25
1r	[1F#	2r	2f#	4bb]
.	.	.	.	4aa
.	.	2c#	2a	4gg#
.	.	.	.	4ff#
=26	=26	=26	=26	=26
1r	4F#]	2B#	2g#	8gg#
.	.	.	.	8ff#
.	8G#	.	.	8ee
.	8F#	.	.	8dd#
.	4E	2e	8r	[2cc#
.	.	.	8b	.
.	8F#	.	8a	.
.	8G#	.	8g#	.
=27	=27	=27	=27	=27
1r	4A	1d#	4f#	2cc#]
.	4F#	.	4a	.
.	2G#	.	4g#	[2b
.	.	.	4f#	.
=28	=28	=28	=28	=28
1r	[1C#	[1c#	2e#	4b]
.	.	.	.	4cc#
.	.	.	[2f#	4b
.	.	.	.	4a
=29	=29	=29	=29	=29
2r	1C#_	1c#]	4f#]	2g#
.	.	.	[2.e	.
2BB	.	.	.	4a#
.	.	.	.	4b
=30	=30	=30	=30	=30
2AA#	2C#]	4F#	2e]	2cc#
.	.	4G#	.	.
2D#	2F#	4A#	2d#	[2b
.	.	4B	.	.
=31	=31	=31	=31	=31
1C#	4E	1c#	[1e	2b]
.	4D#	.	.	.
.	4E	.	.	2a#
.	4F#	.	.	.
=32	=32	=32	=32	=32
[1BB	4G#	2r	4e]	[1b
.	4F#	.	4d#	.
.	4G#	2e	4e	.
.	4A	.	8f#	.
.	.	.	8g#	.
=33	=33	=33	=33	=33
4BB]	[1B	2d#	2f#	4b]
4G#	.	.	.	4cc#
4F#	.	2g#	[2b	4dd#
4E	.	.	.	4ee
=34	=34	=34	=34	=34
2B	1B_	1f#	4b]	2ee
.	.	.	4cc#	.
2BB	.	.	4b	2dd#
.	.	.	4a	.
=35	=35	=35	=35	=35
2E	2B]	2e	2g#	4ee
.	.	.	.	4dd#
2A	2c#	2r	2r	4ee
.	.	.	.	4ff#
=36	=36	=36	=36	=36
2G#	2B#	1r	1r	8gg#
.	.	.	.	8ff#
.	.	.	.	8gg#
.	.	.	.	8aa
[2c#	2e	.	.	8gg#
.	.	.	.	8ff#
.	.	.	.	8ee
.	.	.	.	8gg#
=37	=37	=37	=37	=37
2c#]	1d#	1r	1r	8ff#
.	.	.	.	8ee
.	.	.	.	8ff#
.	.	.	.	8gg#
2B#	.	.	.	8ff#
.	.	.	.	8ee
.	.	.	.	8dd#
.	.	.	.	8ff#
=38	=38	=38	=38	=38
2c#	[1c#	2r	1r	8ee
.	.	.	.	8dd#
.	.	.	.	8ee
.	.	.	.	8ff#
2r	.	2g#	.	8ee
.	.	.	.	8dd#
.	.	.	.	8cc#
.	.	.	.	8ee
=39	=39	=39	=39	=39
1r	4c#]	2f##	1r	8dd#
.	.	.	.	8cc#
.	4B	.	.	8dd#
.	.	.	.	8ee
.	4A#	2b	.	8dd#
.	.	.	.	8cc#
.	[4G#	.	.	8b
.	.	.	.	8dd#
=40	=40	=40	=40	=40
1r	4G#]	[1a#	1r	8cc#
.	.	.	.	8b
.	8F##	.	.	8cc#
.	8E#	.	.	8dd#
.	2F##	.	.	8cc#
.	.	.	.	8b
.	.	.	.	8a#
.	.	.	.	8cc#
=41	=41	=41	=41	=41
1r	8G#	4a#]	1r	[2b
.	8A#	.	.	.
.	8G#	4d#	.	.
.	8F##	.	.	.
.	8G#	[2g#	.	8b]
.	8A#	.	.	8cc#
.	8B	.	.	8dd#
.	8G#	.	.	8b
=42	=42	=42	=42	=42
1r	8An	4g#]	1r	2.cc#
.	8B	.	.	.
.	8A	8f#	.	.
.	8G#	8e	.	.
.	8A#	[2f#	.	.
.	8B	.	.	.
.	8c#	.	.	4ee
.	8A#	.	.	.
=43	=43	=43	=43	=43
1r	8B	4f#]	1r	2.dd#
.	8c#	.	.	.
.	8B	8e	.	.
.	8A#	8f#	.	.
.	8B#	[2g#	.	.
.	8c#	.	.	.
.	8d#	.	.	4ff#
.	8B#	.	.	.
=44	=44	=44	=44	=44
4r	1c#	1g#_	2r	[1ee
8C#	.	.	.	.
8D#	.	.	.	.
4E	.	.	2cc#	.
4F#	.	.	.	.
=45	=45	=45	=45	=45
8G#	1r	1g#]	2b#	4ee]
8F#	.	.	.	.
8G#	.	.	.	2dd#
8A	.	.	.	.
8G#	.	.	2ee	.
8F#	.	.	.	.
8E	.	.	.	[4cc#
8G#	.	.	.	.
=46	=46	=46	=46	=46
8F#	1r	1r	[1dd#	4cc#]
8E	.	.	.	.
8F#	.	.	.	8b#
8G#	.	.	.	8a#
8F#	.	.	.	4b#
8E	.	.	.	.
8D#	.	.	.	4dd#
8F#	.	.	.	.
=47	=47	=47	=47	=47
8E	1r	1r	2dd#]	8gg#
8D#	.	.	.	8ff#
8E	.	.	.	8gg#
8F#	.	.	.	8aa
8E	.	.	[2cc#	8gg#
8A	.	.	.	8ff#
8G#	.	.	.	8ee
8A	.	.	.	8gg#
=48	=48	=48	=48	=48
8D#	1r	1r	2cc#]	8ff#
8C#	.	.	.	8ee
8D#	.	.	.	8ff#
8E	.	.	.	8gg#
8D#	.	.	4b#	8ff#
8G#	.	.	.	8ee
8F#	.	.	[4bn	8dd#
8G#	.	.	.	8ff#
=49	=49	=49	=49	=49
2C#	1r	4r	8b]	2ee#
.	.	.	8b	.
.	.	4c#	8cc#	.
.	.	.	8ddn	.
2r	.	4f#	8cc#	2aa
.	.	.	8b	.
.	.	4f#	8a	.
.	.	.	8cc#	.
=50	=50	=50	=50	=50
1r	1r	4f#	8b	[1gg#
.	.	.	8a	.
.	.	8e#	8b	.
.	.	8d#	8cc#	.
.	.	2e#	8b	.
.	.	.	8a	.
.	.	.	8g#	.
.	.	.	8b	.
=51	=51	=51	=51	=51
1r	2r	4f#	[2a	4gg#]
.	.	8F#	.	8ff#
.	.	8G#	.	8ee
.	2F#	4A	8a]	2ddn
.	.	.	8cc#	.
.	.	4B	8b	.
.	.	.	8a	.
=52	=52	=52	=52	=52
1r	2E#	8c#	2g#	4r
.	.	8B	.	.
.	.	8c#	.	4cc#
.	.	8dn	.	.
.	2A	8c#	2r	4ff#
.	.	8B	.	.
.	.	8A	.	4ff#
.	.	8c#	.	.
=53	=53	=53	=53	=53
1r	1G#	8B	1r	4ff#
.	.	8A	.	.
.	.	8B	.	8ee
.	.	8c#	.	8ddn
.	.	8B	.	[2ee
.	.	8A	.	.
.	.	8G#	.	.
.	.	8B	.	.
=54	=54	=54	=54	=54
1r	1F#	8A	2r	4ee]
.	.	8G#	.	.
.	.	8A	.	8ddn
.	.	8B	.	8cc#
.	.	8A	2a	[2dd
.	.	8B	.	.
.	.	8c#	.	.
.	.	8dn	.	.
=55	=55	=55	=55	=55
4r	1r	8e	2g#	2dd]
.	.	8dn	.	.
4E	.	8e	.	.
.	.	8f#	.	.
4A	.	8e	2cc#	2cc#
.	.	8dn	.	.
4A	.	8c#	.	.
.	.	8e	.	.
=56	=56	=56	=56	=56
4A	1r	8dn	[1b	2ff#
.	.	8c#	.	.
8G#	.	8d	.	.
8F#	.	8e	.	.
2G#	.	8d	.	2ee
.	.	8c#	.	.
.	.	8B	.	.
.	.	8d	.	.
=57	=57	=57	=57	=57
2A	1r	8c#	4b]	4.ee
.	.	8B	.	.
.	.	8c#	4e	.
.	.	8dn	.	8ff#
2F#	.	8c#	4a	8ee
.	.	8B	.	8ddn
.	.	8A	4a	8cc#
.	.	8c#	.	8ee
=58	=58	=58	=58	=58
2BB	1r	1B	4a	8ddn
.	.	.	.	8cc#
.	.	.	8g#	8dd
.	.	.	8f#	8ee
2E	.	.	[2g#	8dd
.	.	.	.	8cc#
.	.	.	.	8b
.	.	.	.	8dd
=59	=59	=59	=59	=59
1AA	1r	8A	4g#]	1cc#
.	.	8G#	.	.
.	.	8F#	8c#	.
.	.	8E	8d#	.
.	.	8D#	4e	.
.	.	8C#	.	.
.	.	8BB#	4f#	.
.	.	8C#	.	.
=60	=60	=60	=60	=60
2GG#	4r	2D#	8g#	2b#
.	.	.	8f#	.
.	4G#	.	8g#	.
.	.	.	8a	.
2r	4c#	2r	8g#	2ee
.	.	.	8f#	.
.	4c#	.	8e	.
.	.	.	8g#	.
=61	=61	=61	=61	=61
1r	4c#	1r	8f#	[1dd#
.	.	.	8e	.
.	8B#	.	8f#	.
.	8A#	.	8g#	.
.	2B#	.	8f#	.
.	.	.	8e	.
.	.	.	8d#	.
.	.	.	8f#	.
=62	=62	=62	=62	=62
1r	2c#	1r	8e	4dd#]
.	.	.	8d#	.
.	.	.	8e	4g#
.	.	.	8f#	.
.	2A	.	8e	4cc#
.	.	.	8d#	.
.	.	.	8c#	4cc#
.	.	.	8e	.
=63	=63	=63	=63	=63
1r	2F#	1r	8d#	4cc#
.	.	.	8c#	.
.	.	.	8d#	8b
.	.	.	8e	8a
.	2G#	.	8dn	[2b
.	.	.	8c#	.
.	.	.	8B	.
.	.	.	8d	.
=64	=64	=64	=64	=64
1r	2E#	4r	8c#	2b]
.	.	.	8B	.
.	.	4C#	8c#	.
.	.	.	8dn	.
.	2F#	4F#	8c#	2a
.	.	.	8e	.
.	.	4F#	8d#	.
.	.	.	8c#	.
=65	=65	=65	=65	=65
4r	1G#	4F#	2b#	2g#
4GG#	.	8E	.	.
.	.	8D#	.	.
4C#	.	2E	2c#	2r
4C#	.	.	.	.
=66	=66	=66	=66	=66
4C#	1D#	2F##	4d#	1dd#
8BB	.	.	4d#	.
8AA#	.	.	.	.
8BB	.	2G#	8g#	.
8AA#	.	.	8a#	.
8GG#	.	.	[4b	.
8BB	.	.	.	.
=67	=67	=67	=67	=67
8AA#	1r	4E#	4b]	2cc##
8GG#	.	.	.	.
8AA#	.	4r	4a#	.
8BB	.	.	.	.
8AA#	.	2r	4dd#	2ff#
8GG#	.	.	.	.
8FF#	.	.	4dd#	.
8AA#	.	.	.	.
=68	=68	=68	=68	=68
8GG#	1r	1r	4dd#	2ee#
8FF#	.	.	.	.
8GG#	.	.	8cc#	.
8AA#	.	.	8b#	.
8GG#	.	.	[2cc#	2een
8BB	.	.	.	.
8AA#	.	.	.	.
8GG#	.	.	.	.
=69	=69	=69	=69	=69
2FF##	1r	4r	2cc#]	8dd#
.	.	.	.	8cc#
.	.	4D#	.	8dd#
.	.	.	.	8ee
2GG#	.	4G#	2b	8dd#
.	.	.	.	8cc#
.	.	4G#	.	8b
.	.	.	.	8dd#
=70	=70	=70	=70	=70
2AA#	1r	4G#	2a#	8cc#
.	.	.	.	8b
.	.	8F#	.	8cc#
.	.	8E	.	8dd#
2D#	.	[2F#	[2an	8cc#
.	.	.	.	8ee
.	.	.	.	8dd#
.	.	.	.	8cc#
=71	=71	=71	=71	=71
2GG#	1r	8F#]	4a]	2b#
.	.	8A	.	.
.	.	8G#	4d#	.
.	.	8F#	.	.
2r	.	8E#	4g#	2bn
.	.	8D#	.	.
.	.	8E#	[4g#	.
.	.	8C#	.	.
=72	=72	=72	=72	=72
1r	1r	8F#	4g#]	2a#
.	.	8E#	.	.
.	.	8F#	8f#	.
.	.	8G#	8e#	.
.	.	8A	[2f#	2an
.	.	8G#	.	.
.	.	8A	.	.
.	.	8B	.	.
=73	=73	=73	=73	=73
1CC#	1r	8c#	2f#]	2g#
.	.	8B#	.	.
.	.	8c#	.	.
.	.	8d#	.	.
.	.	8e	2e	2r
.	.	8d#	.	.
.	.	8e	.	.
.	.	8f#	.	.
=74	=74	=74	=74	=74
2BB#	4r	8g#	2d#	1r
.	.	8f#	.	.
.	4GG#	8g#	.	.
.	.	8a	.	.
2EE	4C#	8g#	2c#	.
.	.	8f#	.	.
.	4C#	8e	.	.
.	.	8g#	.	.
=75	=75	=75	=75	=75
1DD#	4C#	8f#	1d#	1r
.	.	8e	.	.
.	8BB#	8f#	.	.
.	8AA#	8g#	.	.
.	2BB#	8f#	.	.
.	.	8e	.	.
.	.	8d#	.	.
.	.	8f#	.	.
=76	=76	=76	=76	=76
4CC#	2C#	8e	1r	1cc#
.	.	8d#	.	.
8CC#	.	8e	.	.
8DD#	.	8f#	.	.
4EE	2r	8e	.	.
.	.	8d#	.	.
4FF#	.	8c#	.	.
.	.	8e	.	.
=77	=77	=77	=77	=77
8GG#	1r	2d#	4r	2b#
8FF#	.	.	.	.
8GG#	.	.	4g#	.
8AA	.	.	.	.
8GG#	.	2r	4cc#	2ee
8FF#	.	.	.	.
8EE	.	.	4cc#	.
8GG#	.	.	.	.
=78	=78	=78	=78	=78
8FF#	1r	1r	4cc#	[1dd#
8EE	.	.	.	.
8FF#	.	.	8b#	.
8GG#	.	.	8a#	.
8FF#	.	.	8b#	.
8EE	.	.	8cc#	.
8DD#	.	.	8dd#	.
8FF#	.	.	8b#	.
=79	=79	=79	=79	=79
4EE	1r	1r	8g#	2dd#]
.	.	.	8f#	.
4E	.	.	8g#	.
.	.	.	8a	.
4A	.	.	8g#	[2cc#
.	.	.	8f#	.
4A	.	.	8e	.
.	.	.	8g#	.
=80	=80	=80	=80	=80
4A	1r	1r	8f#	2cc#]
.	.	.	8e	.
8G#	.	.	8f#	.
8F#	.	.	8g#	.
4G#	.	.	8f#	2b#
.	.	.	8e	.
4GG#	.	.	8d#	.
.	.	.	8f#	.
=81	=81	=81	=81	=81
4C#	1C#	1r	8e	4r
.	.	.	8g#	.
4BB	.	.	8a	8cc#
.	.	.	8b	8dd#
2AA	.	.	8cc#	4ee
.	.	.	8dd#	.
.	.	.	8b#	4ff#
.	.	.	8cc#	.
=82	=82	=82	=82	=82
4GG#	2BB#	4r	4dd#	8gg#
.	.	.	.	8ff#
4r	.	4G#	4r	8gg#
.	.	.	.	8aa
2r	2E	4c#	2r	8gg#
.	.	.	.	8ff#
.	.	4c#	.	8ee
.	.	.	.	8gg#
=83	=83	=83	=83	=83
1r	1D#	4c#	1r	8ff#
.	.	.	.	8ee
.	.	8B#	.	8ff#
.	.	8A#	.	8gg#
.	.	2B#	.	8ff#
.	.	.	.	8ee
.	.	.	.	8dd#
.	.	.	.	8ff#
=84	=84	=84	=84	=84
1r	4C#	1c#	1r	8ee
.	.	.	.	8dd#
.	4E	.	.	8ee
.	.	.	.	8ff#
.	4A	.	.	8ee
.	.	.	.	8ddn
.	4A	.	.	8cc#
.	.	.	.	8ee
=85	=85	=85	=85	=85
1r	4A	2.B	4r	8ddn
.	.	.	.	8cc#
.	8G#	.	4f#	8dd
.	8F#	.	.	8ee
.	[2G#	.	4b	8dd
.	.	.	.	8cc#
.	.	4f#	4b	8b
.	.	.	.	8dd
=86	=86	=86	=86	=86
4r	2G#]	2e#	4b	8cc#
.	.	.	.	8b
4C#	.	.	8a	8cc#
.	.	.	8g#	8ddn
4F#	2F#	2f#	2a	8cc#
.	.	.	.	8b
4F#	.	.	.	8a
.	.	.	.	8cc#
=87	=87	=87	=87	=87
4F#	1G#	2B	[1g#	8b
.	.	.	.	8a
8E#	.	.	.	8b
8D#	.	.	.	8cc#
2E#	.	[2c#	.	8b
.	.	.	.	8a
.	.	.	.	8g#
.	.	.	.	8b
=88	=88	=88	=88	=88
2F#	2A	2c#_	8g#]	2a
.	.	.	8g#	.
.	.	.	8f#	.
.	.	.	8e#	.
2r	[2F#	8c#]	2f#	2r
.	.	8c#	.	.
.	.	8B	.	.
.	.	8A	.	.
=89	=89	=89	=89	=89
1r	8F#]	1G#	[2g#	1cc#
.	8F#	.	.	.
.	8E	.	.	.
.	8D#	.	.	.
.	4E	.	8g#]	.
.	.	.	8g#	.
.	4C#	.	8f#	.
.	.	.	8e	.
=90	=90	=90	=90	=90
4r	1G#	1r	8d#	2b#
.	.	.	8a	.
4GG#	.	.	8g#	.
.	.	.	8f#	.
4C#	.	.	8e	2ee
.	.	.	8g#	.
4C#	.	.	8cc#	.
.	.	.	8bn	.
=91	=91	=91	=91	=91
4C#	2F#	1r	8a	[1dd#
.	.	.	8g#	.
8BB#	.	.	8a	.
8AA#	.	.	8f#	.
8BB#	2D#	.	[2g#	.
8C#	.	.	.	.
8D#	.	.	.	.
8BB#	.	.	.	.
=92	=92	=92	=92	=92
2EE	8E	1r	4g#]	4dd#]
.	8D#	.	.	.
.	8E	.	8cc#	4cc#
.	8F#	.	8b#	.
4r	8E	.	[2cc#	4gg#
.	8D#	.	.	.
4AA	8C#	.	.	4gg#
.	8E	.	.	.
=93	=93	=93	=93	=93
2DD#	8D#	1r	4cc#]	4gg#
.	8C#	.	.	.
.	8D#	.	4a#	8ff#
.	8E	.	.	8ee
4r	8D#	.	4dd#	2ff#
.	8C#	.	.	.
4GG#	8BB#	.	4dd#	.
.	8D#	.	.	.
=94	=94	=94	=94	=94
4CC#	4C#	1r	4dd#	1ee
4r	4E	.	8cc#	.
.	.	.	8b	.
2r	4A	.	2cc#	.
.	4A	.	.	.
=95	=95	=95	=95	=95
1r	4A	4r	2b	2dd#
.	8Gn	4B	.	.
.	8F#	.	.	.
.	2E	4e	2b	2ggn
.	.	4e	.	.
=96	=96	=96	=96	=96
1r	4r	4e	2a#	2ff#
.	4F#	8dn	.	.
.	.	8c#	.	.
.	4B	2B	2ddn	2f#
.	4B	.	.	.
=97	=97	=97	=97	=97
2r	4B	4r	1cc#	2e#
.	8A	4c#	.	.
.	8G#	.	.	.
2C#	8A	4f#	.	2a
.	8G#	.	.	.
.	8F#	4f#	.	.
.	8E	.	.	.
=98	=98	=98	=98	=98
2BB#	2D#	4f#	4r	4g#
.	.	8e	4g#	4r
.	.	8d#	.	.
2E	4r	2e	4cc#	2r
.	4G#	.	4cc#	.
=99	=99	=99	=99	=99
1D#	4d#	[2.f#	4cc#	4r
.	4d#	.	8b#	4b#
.	.	.	8a#	.
.	4d#	.	8b#	4ff#
.	.	.	8cc#	.
.	8c#	8f#]	[4dd#	4ff#
.	8B#	8g#	.	.
=100	=100	=100	=100	=100
4C#	1c#	4a	4dd#]	4ff#
4E	.	8g#	8cc#	8ee
.	.	8f#	8b#	8dd#
4A	.	4g#	2cc#	4ee
4A	.	8f#	.	8dd#
.	.	8e	.	8cc#
=101	=101	=101	=101	=101
4A	2B#	2d#	2f#	4dd#
8G#	.	.	.	4b#
8F#	.	.	.	.
8E	[2e	[2e	[2g#	[2cc#
8D#	.	.	.	.
8C#	.	.	.	.
8BBn	.	.	.	.
=102	=102	=102	=102	=102
2AA#	4e]	2e]	2g#]	1cc#]
.	4C#	.	.	.
[2AAn	4F#	4d#	[2f#	.
.	4F#	4c#	.	.
=103	=103	=103	=103	=103
4AA]	4F#	4d#	4f#]	2b#
8GG#	8E#	8e#	4r	.
8FF#	8D#	8f#	.	.
2EE#	[2C#	4g#	2r	2bn
.	.	4g#	.	.
=104	=104	=104	=104	=104
1FF#	2C#]	4r	4g#	2a#
.	.	4c#	8f#	.
.	.	.	8e	.
.	[2D#	4d#	4f#	2an
.	.	4c#	4f#	.
=105	=105	=105	=105	=105
[1GG#	4D#]	2B#	4f#	1g#
.	4D#	.	8e	.
.	.	.	8d#	.
.	4G#	[2c#	[2e	.
.	4G#	.	.	.
=106	=106	=106	=106	=106
1GG#_	4G#	2c#]	4e]	2a#
.	8F#	.	8f#	.
.	8E	.	8g#	.
.	4F#	2d#	4an	2b#
.	4F#	.	[4g#	.
=107	=107	=107	=107	=107
1GG#_	4F#	4c#	4g#]	1cc#
.	8E	4c#	4e	.
.	8D#	.	.	.
.	4E	4f#	4a	.
.	8D#	4f#	4a	.
.	8C#	.	.	.
=108	=108	=108	=108	=108
1GG#]	4D#	4f#	4a	2b#
.	4GG#	8e	8g#	.
.	.	8d#	8f#	.
.	4C#	4e	4g#	[2ee
.	4C#	8f#	8a#	.
.	.	8g#	8b#	.
=109	=109	=109	=109	=109
1FF##	4C#	2a#	2cc#	2ee]
.	8BB	.	.	.
.	8AA#	.	.	.
.	[2D#	[2d#	2a#	4dd#
.	.	.	.	4cc#
=110	=110	=110	=110	=110
[1GG#	8D#]	2d#]	2g#	2b#
.	8E	.	.	.
.	[4F#	.	.	.
.	8F#]	2e	[2g#	[2cc#
.	8E	.	.	.
.	8D#	.	.	.
.	8C#	.	.	.
=111	=111	=111	=111	=111
1GG#]	1G#	2.d#	1g#]	2cc#]
.	.	.	.	2b#
.	.	8e	.	.
.	.	8f#	.	.
=112	=112	=112	=112	=112
[1C#	2.A	4e#	2g#	[1cc#
.	.	[2.c#	.	.
.	.	.	2f#	.
.	8G#	.	.	.
.	8A	.	.	.
=113	=113	=113	=113	=113
1C#_	4B	4c#]	2e#	1cc#_
.	4A	4c#	.	.
.	4G#	4f#	2a	.
.	4F#	4f#	.	.
=114	=114	=114	=114	=114
1C#_	4c#	2f#	[1g#	1cc#_
.	8B	.	.	.
.	8A	.	.	.
.	4G#	4e#	.	.
.	4F#	4d#	.	.
=115	=115	=115	=115	=115
1C#;]	1G#;	1e#;	1g#;]	1cc#;]
==	==	==	==	==
*-	*-	*-	*-	*-
!!!CDT: 1685/3/-1750/7/28
!!!OCY: Deutschland
!!!PPP: Coethen; Cothen; Co2then
!!!ODT: <1722//
!!!PDT: 1722
!!!AFR: fuga; fugue
!!!AST: polyphony
!!!AMT: simple duple
!!!SCA: Bach-Werke-Verzeichnis
!!!YOR: Bach Gesellschaft
!!!SMS: British Library, various
!!!AIN: cemba; clavi
!!!EEV: 1.0
!!!RDT: 1986 November 15
!!!YER: 1994 August 10
!!!EFL: 4/48
!!!VTS: 2655113390
